img/docs_icon.svg

<svg width="16" height="21" viewBox="0 0 16 21" fill="none" xmlns="http://www.w3.org/2000/svg">
<path d="M12.6747 3.99996H16C15.9618 3.95206 15.9283 3.90433 15.8851 3.86129L12.1387 0.114888C12.0958 0.0718478 12.0479 0.0383508 12 0V3.3254C12 3.69852 12.3015 4 12.6748 4L12.6747 3.99996Z" fill="white"/>
<path d="M12.6266 4.77158C11.791 4.77158 11.1109 4.10789 11.1109 3.29239V0H1.33337C0.600013 0 0 0.585628 0 1.3014V19.4986C0 20.2144 0.600013 20.8 1.33337 20.8H14.6666C15.4 20.8 16 20.2144 16 19.4986V4.7715L12.6266 4.77158ZM7.99988 15.6721L5.24998 12.9883L5.87839 12.375L7.55545 14.0116V8.23069H8.44435V14.0112L10.1212 12.3746L10.7496 12.9879L7.99988 15.6721Z" fill="white"/>
</svg>

<svg width="16" height="21" fill="none" xmlns="http://www.w3.org/2000/svg"><path d="M12.675 4H16c-.038-.048-.072-.096-.115-.139L12.14.115C12.096.072 12.048.038 12 0v3.325c0 .374.302.675.675.675Z" fill="#fff"/><path d="M12.627 4.772c-.836 0-1.516-.664-1.516-1.48V0H1.333C.6 0 0 .586 0 1.301V19.5c0 .715.6 1.301 1.333 1.301h13.334c.733 0 1.333-.586 1.333-1.301V4.772h-3.373ZM8 15.672l-2.75-2.684.628-.613 1.677 1.637V8.23h.89v5.78l1.676-1.636.629.613L8 15.672Z" fill="#fff"/></svg>
